X: 38656
T: Storyteller, The
R: jig
M: 6/8
K: Gmajor
D|:B,DE DB,G,|CEc A2G|Fd^c =cBA|GBG D^C=C|
B,DE DB,G,|CEc A2G|Fd^c =cBA|1 GDB, G,2D:|2 GDB G2d||
dBd bgd|dgb gdB|dBd bgd|c'aa adc|
Bdg bgd|dgb gdB|A^cd ecA|A^cA dD=C|
B,DE DB,G,|CEc A2G|Fd^c =cBA|GBG D^C=C|
B,DE DB,G,|CEc A2G|Ffe dcA|FAd g2||

